X: 33506
T: Rain On The Roof
R: jig
M: 6/8
K: Gmajor
|:GB,G BGB|dge dBG|c2c A/B/cA|EFG ABA|
GB,G BGB|dge dBG|A/B/cA EFG|AGG G2D:|
GBd ~g3|gba fdB|c2c A/B/cA|EFG ABA|
GBd ~g3|gba fdB|gag f2d|e/f/ge dBA|
GBd ~g3|gba fdB|c2c A/B/cA|EFG ABA|
GB,G BGB|dge dBG|A/B/cA EFG|AGG G3|

